X:1
T:Thrice Blessèd Ground
T:John Jenkins Husband, 1815
T:Thrice Blessèd Ground
T:Public Domain
T:Public Domain
C:John Jenkins Husband, 1815
Z:Public Domain
%%score ( 1 2 ) ( 3 4 )
L:1/8
M:3/4
K:G
V:1 treble 
V:2 treble 
V:3 bass 
V:4 bass 
V:1
 D2 | [DG]2 [DG]2 [DG]2 | [DG]4 ([DG][DA]) | [DB]2 [DB]2 [DB]2 | [DB]4 ([DG][DB]) | %5
w: 1.~My|I have found|the thrice *|bless- èd ground,|Where life *|
w: 2.~’Tis|in the blood|of Him *|who once stood|My ref- *|
w: 3.~He|on the tree|the sen- *|tence for me,|And now *|
w: 4.~And|here be- low|’mid sor- *|row and woe,|My place *|
w: 5.~And|I shall find|for such *|is His mind|“He’ll not *|
 [Gd]2 [Gd]2 [Gd]2 | [Ge]4 [Gd][DB] | [GB]2 [FA]3 [FA] | [FA]4 ||"^Refrain" [Gd]>[Gd] | %10
w: and where joy|and true com-|fort a- bound.|||
w: uge and safe-|ty, my sure-|ty with God.|||
w: both the sure-|ty and sin-|ner are free.|||
w: is in Heav-|en with Je-|sus I know.|||
w: be in glo-|ry and leave|me be- hind.”|||
 [Ge]2 [Gd]2 [GB]>[DA] | [DG]2 [DG]2 [Gd]>[Gd] | [Ge]2 [Gd]2 [GB]2 | [FA]4 [Gd]>[Gd] | %14
w: ||||
w: ||||
w: ||||
w: ||||
w: ||||
 [Ge]2 [Gd]2 [GB]>[DA] | [DG]2 [DG]2 [GB]2 | [Gc]2 [GB]3 [FA] | [DG]4 |] %18
w: ||||
w: ||||
w: ||||
w: ||||
w: ||||
V:2
 D2 | x6 | x6 | x6 | x6 | x6 | x6 | x6 | x4 || x2 | x6 | x6 | x6 | x6 | x6 | x6 | x6 | x4 |] %18
w: God,||||||||||||||||||
w: found||||||||||||||||||
w: bore||||||||||||||||||
w: though||||||||||||||||||
w: this||||||||||||||||||
V:3
 [G,B,]2 | [G,B,]2 [D,B,]2 [B,,B,]2 | [G,,B,]4 ([B,D][A,C]) | [G,B,]2 [D,G,]2 [B,,G,]2 | %4
w: ~|~ ~ ~|~ ~ *|~ ~ ~|
 [G,,G,]4 ([G,B,][G,B,]) | [G,B,]2 [G,B,]2 [G,B,]2 | [G,C]4 [G,B,]G, | [D,D]2 [D,D]3 [D,D] | %8
w: ~ ~ *|~ ~ ~|~ ~ ~|~ ~ ~|
 [D,D]4 || [G,B,]>[G,B,] | [C,C]2 [G,B,]2 [G,D]>[G,C] | [G,B,]2 [G,B,]2 [G,B,]>[G,B,] | %12
w: Hal-|le- lu-|jah! Thine the glor-|y. Hal- le- lu-|
 [C,C]2 [G,B,]2 [G,D]2 | [D,D]4 [G,B,]>[G,B,] | [C,C]2 [G,B,]2 [G,D]>[G,C] | %15
w: jah! A- men.|Hal- le- lu-|jah! Thine the glor-|
 [G,B,]2 [G,B,]2 [G,D]2 | [C,E]2 [D,D]3 [D,C] | [G,,G,B,]4 |] %18
w: y. Re- vive|us a- gain.||
V:4
 x2 | x6 | x6 | x6 | x6 | x6 | x5 G, | x6 | x4 || x2 | x6 | x6 | x6 | x6 | x6 | x6 | x6 | x4 |] %18
w: ||||||~||||||||||||

